X:1
T:Elfin Dance
T:Elfin Dance
T:Op 12, No. 4
T:Edvard Grieg
T:Public Domain (PianoXML typeset)
T:Public Domain (PianoXML typeset)
C:Edvard Grieg
Z:Public Domain (PianoXML typeset)
%%score { 1 | 2 }
L:1/8
Q:1/4=132
M:3/4
K:G
V:1 treble nm="Grand Piano"
V:2 treble 
V:1
"^Molto allegro e sempre staccato"!pp! .[Be]2 .[Be]2 .[ce]2 | .[Be]2 .[Be]2 (GA | BcBfed | %3
 Beg^a b2) | .[fb]2 .[fb]2 .[gb]2 | .[fb]2 .[fb]2 (B^c | df!<(![Bd]f[^A^c]f!<)! | %7
 [B^d]f[Bd]f[Bd]f) |!pp! .[Be]2 .[Be]2 .[ce]2 | .[Be]2 .[Be]2 (GA | BcBfed | Beg^a b2) | %12
 .[fb]2 .[fb]2 .[gb]2 | .[fb]2 .[fb]2 (B^c | df!<(![Bd]f[^A^c]f!<)! | [B^d]f[Bd]f[Bd]f) | %16
!f! .B,2 .B,2 .F,2 | .B,2 .B,2 (EF | G^AGAFA | E^AEA) z2 |!f! .B,2 .B,2 .F,2 | .B,2 .B,2 (EF | %22
 G_BGBFB | E_BEB) (GA |"_cresc." _B^cBcAc | G^cGc) (^AB |!f! ceceBe |!>(! ^AeAeAe)!>)! | %28
!pp! (BeBeBe |"_rit." B^dBdBd) |"^a tempo" .[Be]2 .[Be]2 .[ce]2 | .[Be]2 .[Be]2 (GA | BcBfed | %33
 Beg^a b2) | .[fb]2 .[fb]2 .[gb]2 | .[fb]2 .[fb]2 (B^c | df!<(![Bd]f[^A^c]f!<)! | %37
 [B^d]f[Bd]f[Bd]f) |!f! .B,2 .B,2 .F,2 | .B,2 .B,2!pp! (EF | G^AGAFA | E^AEA) z2 | %42
!f! .B,2 .B,2 .F,2 | .B,2 .B,2!pp! (EF | G_BGBFB | E_BEB) (GA |"_cresc." _B^cBcAc | G^cGc) (^AB | %48
!f! ceceBe |!>(! ^AeAeAe)!>)! |!pp! (BeBeBe |"_rit." B^dBdBd) |"^a tempo" .[Be]2 .[Be]2 .[ce]2 | %53
 .[Be]2 .[Be]2 (GA | BcBfed | Beg^a b2) | .[fb]2 .[fb]2 .[gb]2 | .[fb]2 .[fb]2 (B^c | %58
 df!<(![Bd]f[^A^c]f!<)! | [B^d]f[Bd]f[Bd]f) |!pp! .[Be]2 .[Be]2 .[ce]2 | .[Be]2 .[Be]2 (GA | %62
 BcBfed | Beg^a b2) | z (^GAc e2) | z (E=FA c2) | z (^^C^DF B2) | .[G,B,E]2 .[G,B,E]2 .[G,CE]2 | %68
 .[G,B,E]2 .[G,B,E]2 .[G,A,E]2 | .[G,B,E]2 z2 z2 |{B^d} .[Ge]2 z2 z2 |{b^d'} .[ge']2 z2 z2 |] %72
V:2
 .[EG]2 .[EG]2 .[CG]2 | .[EG]2 .[EG]2 z2 | .[EG]2 .[EG]2 .[EA]2 | .[EG]2 z2 z2 | %4
 .[Bd]2 .[Bd]2 .[Gd]2 | .[Bd]2 .[Bd]2 z2 | (F2 DE .F2) | (F4 B,2) | .[EG]2 .[EG]2 .[CG]2 | %9
 .[EG]2 .[EG]2 z2 | .[EG]2 .[EG]2 .[EA]2 | .[EG]2 z2 z2 | .[Bd]2 .[Bd]2 .[Gd]2 | .[Bd]2 .[Bd]2 z2 | %14
 (F2 DE .F2) | (F4 B,2) |[K:bass] .B,,2 .B,,2 .F,,2 | .B,,2 .B,,2!pp! z2 | %18
 .[E,^C]2 .[E,C]2 .[F,C]2 | .[G,^C]2 .[G,C]2 z2 | .B,,2 .B,,2 .F,,2 | .B,,2 .B,,2!pp! z2 | %22
 .[E,^C]2 .[E,C]2 .[F,C]2 | .[G,^C]2 .[G,C]2 z2 | .[G,E]2 .[G,E]2 .[A,E]2 | .[_B,E]2 .[B,E]2 z2 | %26
[K:treble] .[_B,G]2 .[EG]2 .[DG]2 | .[CF]2 .[CF]2 .[CF]2 |!ped! [B,F]2 [B,F]2 [B,F]2 | %29
 [B,F]2 [B,F]2 [B,F]2!ped-up! | .[EG]2 .[EG]2 .[CG]2 | .[EG]2 .[EG]2 z2 | .[EG]2 .[EG]2 .[EA]2 | %33
 .[EG]2 z2 z2 | .[Bd]2 .[Bd]2 .[Gd]2 | .[Bd]2 .[Bd]2 z2 | (F2 DE .F2) |!ped! F4 B,2!ped-up! | %38
[K:bass] .B,,2 .B,,2 .F,,2 | .B,,2 .B,,2 z2 | .[E,^C]2 .[E,C]2 .[F,C]2 | .[G,^C]2 .[G,C]2 z2 | %42
 .B,,2 .B,,2 .F,,2 | .B,,2 .B,,2 z2 | .[E,^C]2 .[E,C]2 .[F,C]2 | .[G,^C]2 .[G,C]2 z2 | %46
 .[G,E]2 .[G,E]2 .[A,E]2 | .[_B,E]2 .[B,E]2 z2 |[K:treble] .[_B,G]2 .[EG]2 .[DG]2 | %49
 .[CF]2 .[CF]2 .[CF]2 |!ped! [B,F]2 [B,F]2 [B,F]2 | [B,F]2 [B,F]2 [B,F]2!ped-up! | %52
 .[EG]2 .[EG]2 .[CG]2 | .[EG]2 .[EG]2 z2 | .[EG]2 .[EG]2 .[EA]2 | .[EG]2 z2 z2 | %56
 .[Bd]2 .[Bd]2 .[Gd]2 | .[Bd]2 .[Bd]2 z2 | (F2 DE .F2) | (F4 B,2) | .[EG]2 .[EG]2 .[CG]2 | %61
 .[EG]2 .[EG]2 z2 | .[EG]2 .[EG]2 .[EA]2 | .[EG]2 z2 z2 |!ped! .[CE]2!ped-up! z2 z2 | %65
[K:bass]!ped! .[A,C]2!ped-up! z2 z2 |!ped! .[B,,F,A,]2!ped-up! z2 z2 | %67
!ppp! .[E,,B,,E,]2 .[E,,B,,E,]2 .[E,,A,,E,]2 | .[E,,B,,E,]2 .[E,,B,,E,]2 .[E,,C,E,]2 | %69
!ped! .[E,,B,,E,]2 z2 z2 | .[E,B,]2 z2 z2 |[K:treble] .[EB]2!ped-up! z2 z2 |] %72

